X: 1
M: 3/4
L: 1/4
K: C
|: "C"[G2E] [cG] | [e2c] [dB] | "F"[c2A] [BG] | [cA] [BG] [AF] \
| "C"[G2E] [GE] | [E2C] [FD] | [G2E] .[ge] | [e3c] | "G7"[F2D] [FD] | [D2B,] [EC] | [F2D] .[fd] | [d3B] |
|1 "C"[G2E] [GE] | [E2C] [FD] | [G2E] .[ge] | [e3c] :|2 "C"[G2E] [GE] | [e2G] [dF] | [c3E]- | [c3E] \
[| "C"[eG] [e/G][d/F][cE] | [eG] [e/G][d/F][cE] | "A7"[eG] [fA]> [eG] | "Dm"[d3F] |
| "G7"[dF] [d/F][c/E][BD] | [dF] [d/F][c/E][BD] | [dF] [eG]> [dF] | "C"[c3E] \
|| "C" [eG] [e/G][d/F][cE] | [eG] [e/G][d/F][cE] | "A7"[eG] [fA]> [eG] | "Dm"[d2F] [eG] \
| "Dm"[fA] [eG] [dF] | "C"[cE] [BE] [AF] | "G7"[GG] [A_G] [BF] | "C"[c3E] |]
